!!!!SEGMENT: pl-sa--400-a-viii-40--006-001_pugnani-gaetano--trio-in-c-largo.krn
!!!cenid: 17xx:2035
!!!COM: Pugnani, Gaetano
!!!COM-rismID: pe30002608
!!!CDT: 1731/11/27-1798/07/15
!!!CNT: Italian
!!!OPR: Trio in c
!!!OTL: Largo
!!!OMV: 001
!!!PDT:
!!!AGN: Secular
!!!SMS-siglum: PL-SA
!!!SMS-shelfmark: 400/A VIII 40
!!!SMS-shelfwork: 006-001 M
!!!SMS-variant:
!!!SMS-altvar:
!!!NIFC-rismSourceID: 1001104672
!!!NIFC-islandoraID:
!!!URL-pdf-islandora:
!!!URL-scan: https://bc.bdsandomierz.pl/dlibra/publication/1703/edition/1671/content @EN{Scan in the Sandomierz Diocese Digital Library} @PL{Skany w portalu Cyfrowa Biblioteka Diecezjalna w Sandomierzu}
!!!ONB-nifc: UWAGA: No 6to, Largo
!!!AIN: 1 empty 2 violn
!!!key:
**kern	**kern	**kern
*part3	*part2	*part1
*staff3	*staff2	*staff1
*Iempty	*Ivioln	*Ivioln
*I"Baſso.	*I"Violino 2do	*I"Violino 1mo
*I'bc	*I'vl 2	*I'vl 1
*	*clefG2	*clefG2
*	*k[b-e-a-]	*k[e-b-a-]
*	*c:	*c:
*	*M4/4	*M4/4
*	*met(c)	*met(c)
*	*2\right	*2\right
!	!LO:TX:a:t=No 6to Largo	!LO:TX:a:t=No 6to Largo
8ryy	8r	8g/
=1	=1	=1
1ryy	8r	8.cc\L
.	8c/L	.
.	.	16ee-\K
.	8Bn/	8.dd\
.	8G/J	.
.	.	16ff\Jk
!	!	!LO:TX:t=P:problem=klamra łukowa
!	!	!LO:TUP:a
.	8c/L	24ee-\LL
.	.	24ff\
.	.	24gg\J
.	16c/L	8cc\J
.	16d/JJ	.
.	8e-/L	16r
.	.	(>16g\LL
.	8c/J	16cc\
.	.	16ee-\JJ)
=2	=2	=2
1ryy	16r	2dd\
.	16f/LL	.
.	16f/	.
.	16d/JJ	.
.	16d/LL	.
.	16Bn/	.
.	16B/	.
.	16G/JJ	.
.	8G/L	(16dd\LL
.	.	16bn\JJ)
.	8G/	16r
.	.	16f/
.	8G/	16r
.	.	16d/
.	8G/J	16r
.	.	16f/
=3	=3	=3
1ryy	8c/L	4e-/
.	16c/L	.
.	16d/JJ	.
.	8e-/L	16r
.	.	16g\LL
.	8c/J	16cc\
.	.	16ee-\JJ
.	16r	[<2dd\
.	16f/LL	.
.	16f/	.
.	16d/JJ	.
.	16d/LL	.
.	16Bn/	.
.	16B/	.
.	16G/JJ	.
=4	=4	=4
1ryy	8G/L	(16dd\LL]
.	.	16bn\JJ)
.	8G/	16r
.	.	16f/
!	!LO:SIC:v:s=Bn	!
.	8B-/	16r
.	.	16d/
!	!LO:SIC:v:s=Bn	!LO:LB:g=original
.	8B-/J	16r
.	.	16f/
.	4c/	16e-/LL
.	.	16d/J
!	!	!LO:N:vis=16
.	.	8c/J
.	8r	16g/LL
.	.	16f/
.	8g/	16e-/
.	.	16d/JJ
=5	=5	=5
1ryy	8.c/L	8r
.	.	8c/L
.	16e-/Jk	.
.	8.d/L	8Bn/
.	.	8G/J
.	16f/Jk	.
*	*Xtuplet	*
!	!LO:TX:t=P:problem=klamra łukowa	!
.	24e-/LL	8c/L
.	24f/	.
.	24g/J	.
.	8c|/J	16c/L
.	.	16d/JJ
!	!LO:LB:g=original	!
.	16r	8e-/L
.	16g\LL	.
.	16cc\	8c/J
.	16ee-\JJ	.
=6	=6	=6
1ryy	2dd\	16r
.	.	16f/LL
.	.	16f/
.	.	16d/JJ
.	.	16c/LL
.	.	16Bn/
.	.	16B/
.	.	16G/JJ
.	8qqcc/	.
.	(16dd\LL	8G/L
.	16bn\JJ)	.
.	16r	8G/
!	!LO:N:vis=8	!
.	16f/	.
.	16r	8B/
.	16d/	.
.	16r	8B/J
.	16f/	.
=7	=7	=7
1ryy	4e-/	8c/L
.	.	16c/L
.	.	16d/JJ
.	16r	8e-/L
.	16g\LL	.
.	16cc\	8c/J
.	16ee-\JJ	.
.	[2dd\	16r
.	.	16f/LL
.	.	16f/
.	.	16d/JJ
.	.	16d/LL
.	.	16Bn/
.	.	16B/
.	.	16G/JJ
=8	=8	=8
1ryy	(16dd\LL]	8G/L
.	16bn\JJ)	.
.	16r	8G/
.	16f/	.
!	!	!LO:SIC:v:s=Bn/
.	16r	8B-/
.	16d/	.
!	!	!LO:SIC:v:s=Bn/J
.	16r	8B-/J
.	16f/	.
.	16e-/LL	4c/
.	16d/J	.
.	8c/J	.
.	16g/LL	8r
.	16f/	.
.	16e-/	8gg\
.	16d/JJ	.
=9	=9	=9
!	!	!LO:LB:g=original
1ryy	8r	4cc\
.	8g/	.
.	4c/	8r
.	.	8gg\
.	8r	4dd\
!	!LO:N:vis=4	!
.	8d/	.
.	4Bn/	8r
.	.	8aa-\
=10	=10	=10
1ryy	8r	4ff\
!	!LO:TX:t=P:problem	!
.	8Bn/L	.
.	8G/	8r
.	8ff\J	8aa-\
.	16.ff\LL	16.aa-\LL
.	32ee-\K	32gg\K
.	16.ee-\	16.gg\
.	32dd\JJk	32ff\JJk
.	16.dd\LL	16.ff\LL
.	32cc\K	32ee-\K
.	16.cc\	16.ee-\
.	32bn\JJk	32dd\JJk
=11	=11	=11
!	!LO:TX:t=P:problem	!LO:TX:t=P:problem=mixed beam
1ryy	4cc\	16.ee-\LL
.	.	32c/K
.	.	16.e-/
.	.	32g/JJk
.	8r	4c/
.	8gg\	.
.	4cc\	8r
.	.	8g/
.	8r	4c/
.	8gg\	.
=12	=12	=12
1ryy	4dd\	8r
.	.	8d/
.	8r	4Bn/
.	8aa-\	.
.	4ff\	8r
!	!	!LO:TX:t=P:problem=mixed beam
.	.	8B/L
.	8r	8G/
.	8aa-\	8ff\J
=13	=13	=13
1ryy	16.aa-\LL	16.ff\LL
.	32gg\K	32ee-\K
.	16.gg\	16.ee-\
.	32ff\JJk	32dd\JJk
.	16.ff\LL	16.dd\LL
.	32ee-\K	32cc\K
.	16.ee-\	16.cc\
.	32dd\JJk	32bn\JJk
!	!LO:TX:t=P:problem=mixed beam	!
.	16.ee-\LL	4cc\
.	32c/K	.
.	16.e-/	.
.	32g/JJk	.
.	8c/L	8r
.	8c/J	8gg\
=14	=14	=14
1ryy	8c/L	8.een\L
.	8c/J	.
.	.	16gg\Jk
*	*tremolo	*
.	8c/L	(32bb-\LLL
.	.	32aa-\
.	.	32gg\
.	.	32ff\JJJ)
.	8c/J	8ee\
!	!	!LO:LB:g=original
.	8c/L	(32b-\LLL
.	.	32a-\
.	.	32g\
.	.	32f\JJJ)
.	8c/J	8en/
.	8c/L	16.c/LL
.	.	32e/K
.	8c/J	16.g/
.	.	32b-/JJk
*	*Xtremolo	*
=15	=15	=15
1ryy	8c/L	16een\KL
.	.	8gg\
.	8c/	.
.	.	[16bb-\Jk
.	8en/	32bb-\LLL]
.	.	32aa-\
.	.	32gg\
.	.	32ff\JJJ
.	8en/J	32ee\LLL
.	.	32dd-X\
.	.	32cc\
.	.	32b-\JJJ
*	*tremolo	*
.	8f/L	16a-\LL
.	.	16cc\JJ
.	8f/	16r
.	.	16ff\
.	8f/	16r
.	.	16dd- \
.	8f/J	16r
.	.	16a-\
*	*Xtremolo	*
=16	=16	=16
1ryy	8B-/L	16g\LL
.	.	16b-\JJ
.	8B-/	16r
.	.	16dd-X\
.	8c/	16r
.	.	16b-\
.	8c/J	16r
.	.	16a-\
.	16.f\LL	4f/
.	32cc\K	.
.	16.a-\	.
.	32cc\JJk	.
!	!LO:TX:t=P:problem=mixed beam	!
.	8f/L	16f/LL
.	.	16e-/
.	8ff\J	16d/
.	.	16c/JJ
=17	=17	=17
1ryy	8.dd\L	8B-/L
.	.	8B-/
.	16ff\Jk	.
.	(32aa-\LLL	8B-/
.	32gg\	.
.	32ff\	.
.	32ee-\JJJ)	.
.	8dd\	8B-/J
!	!LO:LB:g=original	!
.	(32a-/LLL	8B-/L
.	32g/	.
.	32f/	.
.	32e-/JJJ)	.
.	8d/	8B-/
.	16.B-/LL	8B-/
.	32d/K	.
!	!LO:N:vis=16	!
.	16.f/	8B-/J
.	32b-/JJk	.
=18	=18	=18
1ryy	16dd\KL	8B-/L
.	8ff\	.
.	.	8B-/
.	16aa-\Jk	.
.	(32aa-\LLL	8d/
.	32gg\	.
.	32ff\	.
.	32ee-\JJJ)	.
.	(32dd\LLL	8d/J
.	32cc\	.
.	32b-\	.
.	32a-\JJJ)	.
!	!	!LO:LB:g=original
.	16g\LL	8e-/L
.	16b-\JJ	.
.	16r	8e-/
.	16ee-\	.
.	16r	8e-/
.	16b-\	.
.	16r	8e-/J
.	16g/	.
=19	=19	=19
1ryy	16f/LL	8A-/L
.	16a-/JJ	.
.	16r	8A-/
.	16cc\	.
.	16r	8B-/
.	16a-/	.
.	16r	8B-/J
!	!LO:TX:t=P:problem=zbędna kreska taktowa po nucie	!
.	16f/	.
=-	=	=-
.	8e-/L	16.e-/LL
.	.	32e-/K
.	8e-/	16.g/
.	.	32b-/JJk
.	8g/	8.ee-M\L
.	8g/J	.
.	.	(32dd\LL
.	.	32ee-\JJJ)
=20	=20	=20
*	*tremolo	*
1ryy	8a-/L	8.ccM\L
.	8a-/	.
.	.	32dd\LL
.	.	32ee-\JJJ
.	8a-/	16ff\LL
.	.	16gg\
.	8a-/J	16aa-\
!	!	!LO:TX:t=P:problem=zbędna kreska taktowa po nucie
.	.	16cc\JJ
=-	=-	=
.	8g/L	8.b-\L
.	8g/	.
.	.	32cc\LL
.	.	32dd\JJJ
.	8g/	16ee-\LL
.	.	16ff\
.	8g/J	16gg\
.	.	16b-\JJ
*	*Xtremolo	*
=21	=21	=21
1ryy	8f/L	8.a-\L
.	8f/	.
.	.	32b-\LL
.	.	32cc\JJJ
!	!	!LO:TX:t=P:problem=mixed beam
.	8B-/	16dd\LL
.	.	16ee-\
.	8B-/J	16ff\
.	.	16a-/JJ
.	16.e-/LL	32g/LLL
.	.	32f/
.	.	(32g/
.	32e-/K	32a-/JJJ)
.	16.g/	8b-|\
.	32b-/JJk	.
.	8.ee-\L	8g/L
.	.	8g/J
.	32dd\LL	.
.	32ee-\JJJ	.
=22	=22	=22
!	!LO:LB:g=original	!
1ryy	8.cc\L	8a-/L
.	.	8a-/
.	32dd\LL	.
.	32ee-\JJJ	.
.	16ff\LL	8a-/
.	16gg\	.
.	16aa-\	8a-/J
.	16cc\JJ	.
.	8.b-\L	8g/L
.	.	8g/
.	(32cc\LL	.
.	32dd\JJJ)	.
.	(16ee-\LL	8g/
.	16ff\	.
.	16gg\)	8g/J
.	16b-\JJ	.
=23	=23	=23
!	!	!LO:LB:g=original
1ryy	8.a-\L	8f/L
.	.	8f/
.	32b-\LL	.
.	32cc\JJJ	.
.	16dd\LL	8B-/
.	16ee-\	.
.	16ff\	8B-/J
.	16cc\JJ	.
.	8g/L	8e-/
.	8g/	4ee-\
.	8g/	.
.	8g/J	8dd\
=24	=24	=24
*	*tremolo	*
1ryy	8g/L	16.ee-\LL
.	.	32bb-\K
.	8g/	16.aa-\
.	.	32gg\JJk
.	8g/	16.ff\LL
.	.	32ee-\K
.	8g/J	16.dd\
.	.	32ee-\JJk
.	8a-/L	8ff\
.	8a-/	4ff\
.	8a-/	.
.	8a-/J	8ff\
*	*Xtremolo	*
=25	=25	=25
!	!LO:TX:t=P:problem=mixed beam	!
1ryy	8b-\L	16.ff\LL
.	.	32ccc\K
.	8b-\	16.bb-\
.	.	32aa-\JJk
.	8B-/	16.gg\LL
.	.	32ff\K
.	8B-/J	16.ee-\
.	.	32dd\JJk
.	8e-/L	8ee-\L
.	8g/	8ee-\J
.	8g/	8r
.	8g/J	8ee-\
=26	=26	=26
*	*	*^
1ryy	8a-/L	8.ccM\L	4ryy
.	8a-/	.	.
.	.	(32aa-\LL	.
.	.	32ff\JJJ)	.
.	8b-/	4ff/	4b-\
.	8B-/J	.	.
!	!	!LO:TX:t=P:problem=mixed beam	!
.	4e-/	8ee-\L	2ryy
.	.	8g/	.
.	8r	8g/	.
.	8e-/	8g/J	.
*	*	*v	*v
=27	=27	=27
1ryy	8.c/L	8a-/L
.	.	8a-/
!	!LO:N:vis=16	!
.	32a-/LL	.
.	32f/JJJ	.
.	4B-/ 4f	8b-/
.	.	8B-/J
.	8e-/L	4e-/
.	16g/L	.
.	16a-/JJ	.
.	16g/LL	8r
.	16f/	.
.	16e-/	8g/
.	16d/JJ	.
=28	=28	=28
1ryy	8c/L	8.cc\L
.	8c/	.
.	.	16ee-\K
.	8Bn/	8.dd\
.	8G/J	.
.	.	16ff\Jk
!	!	!LO:TX:t=P:problem=klamra łukowa
!	!LO:LB:g=original	!LO:TUP:a
.	8c/L	24ee-\LL
.	.	24ff\
.	.	24gg\J
.	16c/L	8cc\J
.	16d/JJ	.
!	!	!LO:LB:g=original
.	8e-/L	16r
.	.	(16g\LL
.	8c/J	16cc\
.	.	16ee-\JJ)
=29	=29	=29
1ryy	16r	2dd\
.	16f/LL	.
.	16f/	.
.	16d/JJ	.
.	16d/LL	.
.	16Bn/	.
.	16B/	.
.	16G/JJ	.
.	8G/L	(16dd\LL
.	.	16bn\JJ)
.	8G/	16r
.	.	16f/
.	8B/	16r
.	.	16d/
.	8B/J	16r
!	!	!LO:N:vis=16
.	.	32f/
!	!	!LO:N:vis=8
.	.	32r
=30	=30	=30
1ryy	4c/	8c/L
.	.	16c/L
.	.	16d/JJ
.	16r	8e-/L
.	16g\LL	.
.	16cc\	8c/J
.	16ee-\JJ	.
.	[2dd\	16r
.	.	16f/LL
.	.	16f/
.	.	16d/JJ
.	.	16d/LL
.	.	16Bn/
.	.	16B/
.	.	16G/JJ
=31	=31	=31
1ryy	16dd\LL]	8G/L
.	16bn\JJ	.
.	16r	8G/
.	16f/	.
.	16r	8Bn/
.	16d/	.
.	16r	8B/J
.	16f/	.
.	16.e-/LL	4c/
.	32c/K	.
.	16.e-/	.
.	32g/JJk	.
.	4c/	8r
.	.	8ccc\
=32	=32	=32
1ryy	8r	16ccc\LL
.	.	16gg\J
.	8e-/L	8gg\J
.	8e-/	8r
.	8e-/J	8ccc\
.	8r	16ccc\LL
.	.	16aa-\J
.	8f/L	8aa-\J
.	8f/	8r
.	8f/J	8ccc\
=33	=33	=33
!	!	!LO:LB:g=original
1ryy	8g/L	8.aa-\L
.	8g/	.
.	.	32gg\LL
.	.	32ff\JJJ
.	8G/	8ee-\L
.	8G/J	8dd\J
!	!	!LO:TX:t=P:problem=mixed beam
.	4c/	16.cc\LL
.	.	32cc\K
.	.	16.g/
.	.	32e-/JJk
.	8r	4c/
.	8cc\	.
=34	=34	=34
!	!LO:LB:g=original	!
1ryy	(16cc\LL	8r
.	16g\J)	.
.	8g|\J	8e-/L
.	8r	8e-/
.	8cc\	8e-/J
.	16cc\LL	8r
.	16a-\J	.
.	8a-\J	8f/L
.	8r	8f/
.	8b-\	8f/J
=35	=35	=35
1ryy	8a-/L	8g/L
.	16g/L	8g/
.	16f/JJ	.
.	8e-/L	8G/
.	8d/J	8G/J
.	4c/	8c/L
.	.	16bn/L
.	.	16cc/JJ
.	16bn\LL	16dd\LL
.	16cc\	16ee-\
.	16dd\	16ff\
.	16ee-\JJ	16gg\JJ
=36	=36	=36
1ryy	8ff\	8aa-\
.	4ff\	4aa-\
.	16ee-\LL	16gg\LL
.	16dd\JJ	16ff\JJ
.	4cc\	8ee-\L
.	.	8ccc\J
.	4e-/	8r
.	.	8ccc\
=37	=37	=37
1ryy	8f/L	8r
.	8f/	8aa-\L
.	8g/	8gg\
.	8g/J	8bn\J
!	!LO:TX:t=P:problem=mixed beam	!
.	8c/L	4cc\
.	8ee-\J	.
.	8r	4e-/
.	8cc\	.
=38	=38	=38
!	!LO:N:vis=16	!
1ryy	8r	8f/L
.	8a-/L	8f/
.	8g/	8g/
.	8Bn/J	8g/J
.	4c/	4c/
.	4r	4r
==	==	==
*-	*-	*-
!!!system-decoration: s1,s2
!!!RDF**kern: > = above
!!!RDF**kern: < = below
!!!RDF**kern: | = vertical stroke
!!!ENC: Marcin Jachim
!!!END: 2021-05-27
!!!ENC: Krzysztof Stępień
!!!END: 2021-10-28
